UI/src/icons/svg/outbox.svg

<?xml version="1.0" standalone="no"?><!DOCTYPE svg PUBLIC "-//W3C//DTD SVG 1.1//EN" "http://www.w3.org/Graphics/SVG/1.1/DTD/svg11.dtd"><svg t="1634046949360" class="icon" viewBox="0 0 1024 1024" version="1.1" xmlns="http://www.w3.org/2000/svg" p-id="20868" xmlns:xlink="http://www.w3.org/1999/xlink" width="256" height="256"><defs><style type="text/css"></style></defs><path d="M191.992 832.008l127.994667-191.992001h383.984001l127.994667 191.992001z m191.992001-575.976001a64.039998 64.039998 0 0 1-59.133536-39.486355 65.341277 65.341277 0 0 1-4.543811-18.431232 63.933336 63.933336 0 0 1 18.431232-51.389859l127.994667-127.994667A63.826674 63.826674 0 0 1 511.978668-0.021332c16.383317 0 32.766635 6.271739 45.246114 18.751218l127.994667 127.994667a64.423982 64.423982 0 0 1 13.887422 69.821091A64.039998 64.039998 0 0 1 639.973334 256.031999h-63.997333v191.992c0 35.390525-28.606808 63.997333-63.997333 63.997333a63.997333 63.997333 0 0 1-63.997334-63.997333v-191.992h-63.997333zM831.965335 0.042665a191.992 191.992 0 0 1 191.992 191.992v639.973335a191.992 191.992 0 0 1-191.992 191.992H191.992a191.992 191.992 0 0 1-191.992-191.992V192.034665a191.992 191.992 0 0 1 191.992-191.992h112.443315l-56.253656 56.189659A191.458689 191.458689 0 0 0 202.871547 128.037332H191.992C156.665472 128.037332 127.994667 156.708137 127.994667 192.034665v639.973335a63.997333 63.997333 0 0 0 63.997333 63.997333h639.973335c35.390525 0 63.997333-28.606808 63.997333-63.997333V192.034665a63.997333 63.997333 0 0 0-63.997333-63.997333h-10.943544a192.461314 192.461314 0 0 0-45.310112-71.805008L719.52202 0.042665H831.965335z" p-id="20869"></path></svg>

<svg xmlns="http://www.w3.org/2000/svg" width="256" height="256" class="icon" viewBox="0 0 1024 1024"><path d="M191.992 832.008l127.995-191.992H703.97l127.994 191.992zm191.992-575.976a64.04 64.04 0 0 1-59.134-39.486 65.3 65.3 0 0 1-4.543-18.432 63.93 63.93 0 0 1 18.43-51.39L466.734 18.73A63.83 63.83 0 0 1 511.979-.021c16.383 0 32.766 6.271 45.246 18.75l127.994 127.996a64.42 64.42 0 0 1 13.888 69.82 64.04 64.04 0 0 1-59.134 39.487h-63.997v191.992c0 35.39-28.607 63.997-63.997 63.997a63.997 63.997 0 0 1-63.998-63.997V256.032zM831.965.042a191.99 191.99 0 0 1 191.992 191.993v639.973A191.99 191.99 0 0 1 831.965 1024H191.992A191.99 191.99 0 0 1 0 832.008V192.035A191.99 191.99 0 0 1 191.992.043h112.443l-56.253 56.19a191.46 191.46 0 0 0-45.31 71.804h-10.88c-35.327 0-63.997 28.671-63.997 63.998v639.973a63.997 63.997 0 0 0 63.997 63.997h639.973c35.39 0 63.998-28.606 63.998-63.997V192.035a63.997 63.997 0 0 0-63.998-63.998h-10.943a192.5 192.5 0 0 0-45.31-71.805L719.522.042z"/></svg>
